svg/furkot/mapbox-maki/heliport.svg

<svg viewBox="0 0 512 512" xmlns="http://www.w3.org/2000/svg"><path d="m136.533 85c-34.133 0-34.133 34.133 0 34.133h136.533v34.133c-9.454 0-17.067 7.612-17.067 17.067v17.067h-85.332-35.134-1.335c-7.765-30.034-34.795-51.163-65.931-51.2-37.704 0-68.267 30.562-68.267 68.267s30.563 68.265 68.267 68.265c12.705-.034 25.15-3.611 35.931-10.332l83.536 112.732c34.385 49.512 96.194 51.2 119.465 51.2h170.667s34.134 0 34.134-34.133v-33.931c0-25.003-4.302-38.636-17.067-51.401l-102.4-102.4s-20.193-17.067-43.465-17.067h-24.802v-17.067c0-9.455-7.611-17.067-17.067-17.067v-34.133h136.534c34.133 0 34.133-34.133 0-34.133zm-68.266 85.333c18.852 0 34.133 15.281 34.133 34.134s-15.281 34.133-34.133 34.133-34.134-15.281-34.134-34.133c0-18.853 15.282-34.134 34.134-34.134zm273.066 51.2c17.066 0 26.951 11.028 34.133 17.067l85.333 85.332h-119.466s-34.134 0-34.134-34.132v-34.133s0-34.134 34.134-34.134z"/></svg>

<svg viewBox="0 0 512 512" xmlns="http://www.w3.org/2000/svg"><path d="M 136.533 85 C 102.4 85 102.4 119.133 136.533 119.133 L 273.066 119.133 L 273.066 153.266 C 263.612 153.266 255.999 160.878 255.999 170.333 L 255.999 187.4 L 170.667 187.4 L 135.533 187.4 L 134.198 187.4 C 126.433 157.366 99.403 136.237 68.267 136.2 C 30.563 136.2 0 166.762 0 204.467 C 0 242.172 30.563 272.732 68.267 272.732 C 80.972 272.698 93.417 269.121 104.198 262.4 L 187.734 375.132 C 222.119 424.644 283.928 426.332 307.199 426.332 L 477.866 426.332 C 477.866 426.332 512 426.332 512 392.199 L 512 358.268 C 512 333.265 507.698 319.632 494.933 306.867 L 392.533 204.467 C 392.533 204.467 372.34 187.4 349.068 187.4 L 324.266 187.4 L 324.266 170.333 C 324.266 160.878 316.655 153.266 307.199 153.266 L 307.199 119.133 L 443.733 119.133 C 477.866 119.133 477.866 85 443.733 85 C 443.733 85 136.533 85 136.533 85 Z M 68.267 170.333 C 87.119 170.333 102.4 185.614 102.4 204.467 C 102.4 223.32 87.119 238.6 68.267 238.6 C 49.415 238.6 34.133 223.319 34.133 204.467 C 34.133 185.614 49.415 170.333 68.267 170.333 Z M 341.333 221.533 C 358.399 221.533 368.284 232.561 375.466 238.6 L 460.799 323.932 L 341.333 323.932 C 341.333 323.932 307.199 323.932 307.199 289.8 L 307.199 255.667 C 307.199 255.667 307.199 221.533 341.333 221.533 Z"/></svg>
